X:101
T: TANZE TANZE TELEMANN
N: K2084
O: Europa, Mitteleuropa, Deutschland, Wetterau, Bettenhausen
R: Kinder - Lied, Reigen, Tanz - Spiel
M: 2/4
L: 1/16
K: C
 | G2G2A2A2 | G2F2E2
C2 | G2G2A2A2 | G2F2E4 |
G2G2A2A2 | G4E2
C2 | G2G2AAA2 | G4E2(3ccc | c8

@@@ Tune index: 7438
